X: 22651
T: Lake Banook
R: waltz
M: 3/4
K: Amajor
AB|:c2- ce Bc|~A2- A2 FE|~F2- F2 A2|~B2- B2 AB|
c2- ce Bc|Az a2- ab|~f2- f2 ec|~B2- B2 AB|
c2- ce Bc|~A2- A2 FE|~F2- F2 A2|~B2- B2 FE|
~F2- F2 A2|~B2- B2 A2|~A2- A2- A2-|1 A2 z2 AB:|2 A2- A2 z2||
|:~A3 B2A/B/|~c3- c2A|~f3 ~e3|~c3- c3|
~A3 B2A/B/|~c3- c-c/A/B/c/|d2e c2B/A/|~B3- B3|
~A3 B2A/B/|~c3- c2A|~a3 ~f2e|~c3- c2A|
afe fec|~A3- AA/B/c/d/|dcB AB2-|BA2- A3:|

